X:1
T:Two 'Irish' Songs
T:Two 'Irish' Songs
T:  By Monte Carlo & Alma Sanders. Arr solo guitar G.Dempsey
C:Monti Carlo
%%score ( 1 2 3 )
L:1/8
M:3/4
K:D
V:1 treble-8 nm="Classical Guitar" snm="Guit."
V:2 treble-8 
V:3 treble-8 
V:1
 z2 f2 e2 || [Ad]3 e [Af]2 |"^Little Town in the Auld County Down" [fa]2 [df]2 [fa]2 | %3
"^CVII........................." !1![fb]2 [df]4- | [df]2 f2 e2 | d2 B2 B2 | [AB]2 A2 B2 | d6- | %8
 d2 f2 e2 | [Ad]3 e [Af]2 | [fa]2 [df]2 [fa]2 | [fb]2 [df]4- | [df]2 f2 ^g2 | a2 f2 f2 | f3 e f2 | %15
 e6- | e2 a2 a2 | b3 a b2 | e2 f2 g2 | a3 g a2 | d2 e2 f2 | g3 f g2 | B2 c2 d2 | f2 d2 f2 | %24
 a2 a2 b2 | c'3 b a2 |"^CV................." f3 e f2 | e2 d2 B2 | [Ad]2 [Aa]2 [Bb]2 | c'3 b a2 | %30
 f2 e2 f2 | [G^ce]6- | [Gce]2 a2 a2 | b3 a b2 | e2 f2 g2 | a3 g a2 | f2 f2 =f2 | %37
"^CV....................." e2 a2 c'2 | b2 c'2 b2 | a2 [db]2 [ec']2 | [db]2 [ca]2 [db]2 | c'3 b a2 | %42
 f3 e f2 | e2 d2 B2 | d2 d2 e2 | f3 e d2 | [A=cf]2 [cg]2 [Fca]2 | b6 | z2 [Bb]2 [cc']2 | %49
 d'3 c' b2 | d'3 c' b2 | [dfa]3 c d2 | g4 fb | f3 e f2 |"^CV................" a4 b2 | d'6- | d'6 |] %57
[K:C] z2"^Tumbledown Shack in Athlone" [Ec]2 [Fd]2 || e2 g2 e2 | d2 c2 d2 | e2 g2 a2 | g3 a b2 | %62
 c'3 d' c'2 | b3 c' b2 | a6- | a2 a2 b2 | [fc']2 a2 a2 | a2 g2 a2 | [gb]2 [eg]2 [eg]2 | g2 f2 e2 | %70
 [fa]2 e2 e2 | [de]2 d2 c2 | g6- | g2 [Ec]2 [Fd]2 | [ce]2 [eg]2 [ce]2 | [Bd]2 c2 [Bd]2 | %76
 [ce]2 [eg]2 [ca]2 | g2 a2 b2 | c'3 d' c'2 | b3 c' b2 | a6- | a2 a2 b2 | c'3 b c'2 | d'2 c'2 a2 | %84
 [eg]2 c'2 e2 | g2 c'2 a2 | [eg]2 c'2 e'2 | !4![B=fgd']2 [ge']2 [fd']2 | c'6- | [cec']6 |] %90
V:2
 x6 || D6 | D6 | !1!!3![B,B]4 B2 | F2 B2 C2 | [G,DG]6 | [CG]6 | D6 | [A,FA]6 | F6 | D6 | %11
 [B,B]4 B2 | F6 | [Ac]6 | [Ac]6 | [A,G-c-]6 | [A,Gc]6 | !0![GBd]6 | [A,Gc]6 | [Acf]4 [Acf]2 | %20
 [B,FB]6 | [E,GBe]6 | [EG]6 | [E,D^G]6 | [A,=Gce]6 | !1![Ddf]6 | [DA=c]6 | [G,DG]6 | D6 | [Ddf]6 | %30
 [DA=c]6 | A,2 E2 C2 | A,6 | [GBd]6 | [A,Gc]6 | [Acf]4 [Acf]2 | [DAd]6 | [A,Ec]6 | [E^GB]6 | %39
 [A,Gc]6 | A,6 | [Ddf]6 | [DA=c]6 | [G,DG]6 | [A,FA]6 | [DA=c]6 | D4 D2 | [GBd]2 [Bd]2 F2 | E2 z4 | %49
 [B=f^g]6 | [B=f^g]6 | D6 | [B,^DAB]4 z2 | [E^Gd]6 | [A,ce]2 E4 | [Ddf]6 | D6 |][K:C] x6 || [CG]6 | %59
 [G,F]6 | [CG]6 | [GB^d]6 | [Gce]6 | [^Gde]6 | [Fc]4 C2 | [Fc]6 | [FA]6 | [Ddf]6 | [E,B]6 | %69
 [A,G^c]6 | [Dd]6 | [D^Fc]4 z2 | G,6- | G,6 | [CG]6 | [G,F]6 | [CG]6 | [GB^d]6 | [Gce]6 | [^Gde]6 | %80
 C2 c2 F2 | [Fc]6 | [FAf]6 | [Dd^f]6 | [Cc]6 | !1![A,G^c]6 | [Cc]6 | x6 | G6- | G6 |] %90
V:3
 x6 || x6 | x6 | x6 | x6 | x6 | x6 | z2 A2 G2 | x6 | x6 | x6 | x6 | x6 | x6 | x6 | x6 | x6 | x6 | %18
 x6 | x6 | x6 | x6 | x6 | x6 | x6 | x6 | x6 | x6 | x6 | x6 | x6 | x6 | x6 | x6 | x6 | x6 | x6 | %37
 x6 | x6 | x6 | x6 | x6 | x6 | x6 | x6 | x6 | x6 | x6 | x6 | x6 | x6 | x6 | x6 | x6 | x6 | x6 | %56
 x6 |][K:C] x6 || x6 | x6 | x6 | x6 | x6 | x6 | x6 | x6 | x6 | x6 | x6 | x6 | x6 | x6 | %72
 z2 [DB]2 [Ec]2 | [Fd]2 z4 | z6 | x6 | x6 | x6 | x6 | x6 | x6 | x6 | x6 | x6 | x6 | x6 | x6 | x6 | %88
 [cg]2 [cg]2 [cf]2 | x6 |] %90

